X: 1
T:Seconds - Page 1  "Arr. J. Johnson 1988"
M:C
L:1/8
Q:80
C:Johann Pachelbel
S:Kannon
K:HP
[| "wrst"|1
f4e4|
d4c4|
B4A4|
B4c4|
f4e4|
d4c4|
B4A4|
B4c4|
d4c4|
B4A4| |
G4f4|  !
g4e4|
d2f2a2g2|
f2d2f2e2|
d2B2d2A2|  !
G2B2A2g2|
f2d2e2c2|
d2f2a2A2| |  !
B2G2A2f2|
d2d2{gef}ed-dc|
dcddcAef|  !
ddcBcfaB|
gfegfedc|
BAGfegfe| |  !
defgaeag|
fBAGAgfe|
dBBcdcBA|  !
GfeBABAg| |
f2f2e4|
a2d2f4|  !
B4A4|
B4c4|
d2d2c4|
a2B2d4|
d4-d2d2|  !
d2g2e2a2| |
af/2g/2af/2g/2a/2A/2B/2c/2d/2e/2f/2g/2|
fd/2e/2ff/2g/2a/2B/2A/2G/2A/2f/2g/2a/2|  !
GB/2A/2Gf/2e/2f/2e/2d/2e/2f/2g/2a/2B/2|
GB/2A/2Bc/2d/2A/2B/2c/2d/2e/2f/2g/2a/2| |
fd/2e/2fe/2d/2e/2c/2d/2e/2f/2e/2d/2c/2|  !
dB/2c/2dd/2e/2f/2g/2f/2e/2f/2d/2c/2d/2|
Bd/2c/2BA/2G/2A/2g/2f/2g/2A/2B/2c/2d/2|
Bd/2c/2dc/2B/2c/2d/2e/2d/2c/2d/2B/2c/2| |  !
d2a2c2a2|
B2a2d2a2|
d2a2d2a2|  !
d2a2e2a2|
a2A2a2A2|
a2f2a2A2|  !
a2g2a2f2|
a2g2a2e2| |
ffgfeefe|  !
dfdBAAGA|
BBcBAAGA|
BBABccBc|  !
